storage/app/icons/phosphoricons/thin/hand-soap-thin.svg

<svg xmlns="http://www.w3.org/2000/svg" fill="currentColor" viewBox="0 0 256 256"><path d="M180 100.23V88a28 28 0 0 0-28-28h-20V28h36a12 12 0 0 1 12 12 4 4 0 0 0 8 0 20 20 0 0 0-20-20h-64a4 4 0 0 0 0 8h20v32h-20a28 28 0 0 0-28 28v12.23A36 36 0 0 0 44 136v80a12 12 0 0 0 12 12h144a12 12 0 0 0 12-12v-80a36 36 0 0 0-32-35.77M104 68h48a20 20 0 0 1 20 20v12H84V88a20 20 0 0 1 20-20m100 148a4 4 0 0 1-4 4H56a4 4 0 0 1-4-4v-80a28 28 0 0 1 28-28h96a28 28 0 0 1 28 28Z"/></svg>

<svg xmlns="http://www.w3.org/2000/svg" viewBox="0 0 256 256" fill="currentColor"><path d="M180,100.23V88a28,28,0,0,0-28-28H132V28h36a12,12,0,0,1,12,12,4,4,0,0,0,8,0,20,20,0,0,0-20-20H104a4,4,0,0,0,0,8h20V60H104A28,28,0,0,0,76,88v12.23A36,36,0,0,0,44,136v80a12,12,0,0,0,12,12H200a12,12,0,0,0,12-12V136A36,36,0,0,0,180,100.23ZM104,68h48a20,20,0,0,1,20,20v12H84V88A20,20,0,0,1,104,68ZM204,216a4,4,0,0,1-4,4H56a4,4,0,0,1-4-4V136a28,28,0,0,1,28-28h96a28,28,0,0,1,28,28Z"/></svg>
